X:1
T:Valse des Roses
C:trad. , fichier abc : Bernard Loffet
L:1/8
Q:380
K:C
M:3/4
|: [c2C,,2] C,2 [G2C,2] | [E2C,,2] C,F [G2C,2] | [c2C,,2] C,2 [G2C,2] | [E2C,,2] C,F [G2C,2] | \
 [A2F,,2] F,2 [G2F,2] | [F2F,,2] F,2 [E2F,2] | [D2G,,2] G,2 G,2 | [C2C,,2] C,2 C,2 :|: [E2C,,2] C,F [G2C,2] | \
 [A2F,,2] F,2 [G2F,2] | [E2C,,2] C,F [G2C,2] | [A2F,,2] F,2 [G2F,2] | [A2F,,2] F,2 [G2F,2] | \
 [F2F,,2] F,2 [E2F,2] | [D2G,,2] G,2 G,2 | [C2C,,2] C,2 C,2 :| \
W:Created with TablEdit http://www.tabledit.com/ by Bernard Loffet
